Catalina-light/actions/22/format-text-larger.svg

<svg xmlns="http://www.w3.org/2000/svg" viewBox="0 0 22 22">
  <defs id="defs3051">
    <style type="text/css" id="current-color-scheme">
      .ColorScheme-Text {
        color:#4d4d4d;
      }
      </style>
  </defs>
 <path 
    style="fill:currentColor;fill-opacity:1;stroke:none" 
    d="M 17.5 4 C 17.013545 5.7025 15.8218 7.1660906 15.296875 8.3378906 C 15.113175 8.6862906 15 9.0773 15 9.5 C 15 10.885 16.115 12 17.5 12 C 18.885 12 20 10.885 20 9.5 C 20 9.0773 19.886825 8.6862906 19.703125 8.3378906 C 19.1782 7.1660906 17.98645 5.7025 17.5 4 z M 4 8 L 4 10 L 8 10 L 8 20 L 10 20 L 10 10 L 14 10 L 14 8 L 4 8 z "
    class="ColorScheme-Text"
    />  
</svg>

<svg viewBox="0 0 22 22" xmlns="http://www.w3.org/2000/svg">
<defs>
<style id="current-color-scheme" type="text/css">.ColorScheme-Text {
        color:#363636;
      }</style>
</defs>
<path class="ColorScheme-Text" d="m17.5 4c-0.48646 1.7025-1.6782 3.1661-2.2031 4.3379-0.1837 0.3484-0.29688 0.73941-0.29688 1.1621 0 1.385 1.115 2.5 2.5 2.5s2.5-1.115 2.5-2.5c0-0.4227-0.11318-0.81371-0.29688-1.1621-0.52492-1.1718-1.7167-2.6354-2.2031-4.3379zm-13.5 4v2h4v10h2v-10h4v-2h-10z" fill="#363636"/>
</svg>
